app/assets/images/telegram_blue.svg

<svg width="24" height="24" viewBox="0 0 24 24" fill="none" xmlns="http://www.w3.org/2000/svg">
<path d="M20.5902 4.68436C20.8432 3.65276 20.0647 2.73795 19.2277 3.06884L2.48855 9.5504C1.88516 9.78397 1.82677 10.7961 2.39123 11.0881L5.54441 12.6452C6.1478 12.9372 6.82905 12.8982 7.43244 12.5089L15.4517 7.33148C15.6852 7.17577 15.8993 7.56505 15.6852 7.77916L9.69028 13.6184C9.10636 14.1829 9.10635 15.2534 9.67081 15.7595L15.1792 20.7423C15.802 21.3067 16.6974 20.898 16.9309 19.9637L20.5902 4.68436Z" fill="#00029C"/>
</svg>

<svg width="24" height="24" fill="none" xmlns="http://www.w3.org/2000/svg"><path d="M20.59 4.684c.253-1.031-.525-1.946-1.362-1.615L2.488 9.55c-.603.234-.661 1.246-.097 1.538l3.153 1.557c.604.292 1.285.253 1.888-.136l8.02-5.178c.233-.155.447.234.233.448L9.69 13.62c-.584.564-.584 1.634-.02 2.14l5.51 4.983c.622.565 1.517.156 1.75-.778l3.66-15.28z" fill="#00029C"/></svg>
